X:1
T:Coolfin
M:12/8
L:1/8
C:Donal Lunny
S:S:Donal Lunny CD (same name) Track 9
R:Slide
N:
Z: Wosika
K:ADor
A2d DEG ABG A2d| DEG AGE c2A B2G| A2d EFG ABc B2G|AdB c2B AdB cAG:|/
A2d d2e cAB ABG| A2d d2e gde BcG| A2d d2e cAB ABG| BcA BGB Adc BGB|/
A2d d2g fed cAG| A2d d2c AGA a2g| e2a g2e cde dAB| cdB  cAG  cAG  ABG
